X: 40425
T: Tom Mhic's
R: polka
M: 2/4
K: Dmajor
|:D>E FA|BA FD|E>F GA|BA F/G/A|
D>E FA|BA FD|E>F GC|ED D2:|
|:dD cD|B>c BA|BA FA|B>c BA|
dD cD|B>c BA|E>F GC|ED D2:|

